public/images/import.svg

<?xml version="1.0" standalone="no"?><!DOCTYPE svg PUBLIC "-//W3C//DTD SVG 1.1//EN" "http://www.w3.org/Graphics/SVG/1.1/DTD/svg11.dtd"><svg t="1706964666328" class="icon" viewBox="0 0 1024 1024" version="1.1" xmlns="http://www.w3.org/2000/svg" p-id="4187" xmlns:xlink="http://www.w3.org/1999/xlink" width="200" height="200"><path fill="#40648a" d="M481.28 715.946667a32 32 0 0 0 22.613333 9.386666h16.213334a32.853333 32.853333 0 0 0 22.613333-9.386666l218.88-219.306667a21.333333 21.333333 0 0 0 0-30.293333l-30.293333-30.293334a20.906667 20.906667 0 0 0-29.866667 0L554.666667 583.253333V149.333333a21.333333 21.333333 0 0 0-21.333334-21.333333h-42.666666a21.333333 21.333333 0 0 0-21.333334 21.333333v433.92l-146.773333-147.2a21.333333 21.333333 0 0 0-30.293333 0l-29.866667 30.293334a21.333333 21.333333 0 0 0 0 30.293333z m30.72-90.026667zM896 810.666667v-149.333334a21.333333 21.333333 0 0 0-21.333333-21.333333h-42.666667a21.333333 21.333333 0 0 0-21.333333 21.333333V810.666667H213.333333v-149.333334a21.333333 21.333333 0 0 0-21.333333-21.333333h-42.666667a21.333333 21.333333 0 0 0-21.333333 21.333333V810.666667a85.333333 85.333333 0 0 0 85.333333 85.333333h597.333334a85.333333 85.333333 0 0 0 85.333333-85.333333z" p-id="4188"></path></svg>

<svg class="icon" viewBox="0 0 1024 1024" xmlns="http://www.w3.org/2000/svg" width="200" height="200"><path fill="#40648a" d="M481.28 715.947a32 32 0 0022.613 9.386h16.214a32.853 32.853 0 0022.613-9.386L761.6 496.64a21.333 21.333 0 000-30.293l-30.293-30.294a20.907 20.907 0 00-29.867 0l-146.773 147.2v-433.92A21.333 21.333 0 00533.333 128h-42.666a21.333 21.333 0 00-21.334 21.333v433.92l-146.773-147.2a21.333 21.333 0 00-30.293 0L262.4 466.347a21.333 21.333 0 000 30.293zM512 625.92zm384 184.747V661.333A21.333 21.333 0 00874.667 640H832a21.333 21.333 0 00-21.333 21.333v149.334H213.333V661.333A21.333 21.333 0 00192 640h-42.667A21.333 21.333 0 00128 661.333v149.334A85.333 85.333 0 00213.333 896h597.334A85.333 85.333 0 00896 810.667z"/></svg>
